format-letter-matches.svg

<svg fill="currentColor" viewBox="0 0 24 24"><path d="M11.14 4 6.43 16h1.93l.96-2.57h5.35l.97 2.57h1.93L12.86 4M12 6.29l2.03 5.42H9.96M20 14v4H4v-3H2v5h20v-6Z"/></svg>

<svg  viewBox="0 0 24 24" fill="currentColor"><path  d="M11.14 4L6.43 16H8.36L9.32 13.43H14.67L15.64 16H17.57L12.86 4M12 6.29L14.03 11.71H9.96M20 14V18H4V15H2V20H22V14Z"/></svg>
